assets/images/payment-method-icons/klarna.svg

<svg fill="none" height="24" viewBox="0 0 39 24" width="39" xmlns="http://www.w3.org/2000/svg"><rect fill="#ffb3c7" height="24" rx="2" width="38" x=".650024" y=".007813"/><g fill="#000"><path d="m29.9707 10.9918c-.3284-.2261-.7117-.3575-1.1085-.38-.3968-.0224-.7922.0649-1.1435.2527-.3514.1877-.6454.4687-.8505.8127s-.3135.738-.3135 1.1396.1084.7957.3135 1.1397.4991.625.8505.8127c.3513.1877.7467.275 1.1435.2526s.7801-.1538 1.1085-.38v.2675h1.2401v-4.1852h-1.2401zm-1.1278 2.9018c-.2083-.0112-.4088-.0838-.5767-.209-.1679-.1251-.2958-.2973-.3679-.4951s-.0852-.4127-.0378-.618c.0475-.2053.1535-.392.3049-.5371s.3415-.2421.5469-.2791.4171-.0123.6087.0709c.1917.0833.355.2215.4698.3976.1147.176.1759.3823.1759.5931-.008.2933-.1308.5714-.3414.7733-.2107.2019-.4921.311-.7824.3034z"/><path d="m12.9657 8.8584h-1.2977v6.0503h1.2977z"/><path d="m24.3533 10.6111c-.2438-.0146-.4874.031-.7099.1327-.2225.1018-.4172.2567-.5673.4514v-.4713h-1.2349v4.185h1.2497v-2.1994c-.0096-.1264.0079-.2533.0512-.3722.0432-.119.1114-.2271.1997-.317.0883-.09.1947-.1597.3121-.2043.1173-.0447.2428-.0633.3679-.0546.545 0 .8583.329.8583.9394v2.2081h1.2387v-2.6615c-.0001-.974-.7664-1.6363-1.7655-1.6363z"/><path d="m16.8885 10.9918c-.3284-.2261-.7117-.3575-1.1085-.38-.3968-.0224-.7922.0649-1.1435.2527-.3514.1877-.6454.4687-.8505.8127s-.3135.738-.3135 1.1396.1084.7957.3135 1.1397.4991.625.8505.8127c.3513.1877.7467.275 1.1435.2526s.7801-.1538 1.1085-.38v.2675h1.24v-4.1852h-1.24zm-1.1278 2.9018c-.2083-.0111-.4089-.0838-.5768-.2089s-.2958-.2973-.368-.4951c-.0721-.1978-.0852-.4127-.0378-.618.0475-.2053.1535-.3921.3049-.5371.1513-.1451.3415-.2422.5469-.2792s.417-.0124.6087.0709.355.2215.4698.3976c.1147.176.1759.3822.1759.5931-.0079.2933-.1307.5714-.3414.7733-.2107.2018-.492.311-.7822.3034z"/><path d="m20.0482 11.2691v-.5452h-1.2696v4.1853h1.2723v-1.9539c0-.6593.7072-1.0137 1.1979-1.0137.0049 0 .0097.0005.0147.0006v-1.218c-.2299-.0062-.4583.0394-.6686.1337-.2102.0943-.397.2347-.5467.4112z"/><path d="m32.5277 13.4248c-.1539 0-.3044.0461-.4324.1326-.128.0864-.2277.2092-.2866.3529-.0589.1438-.0744.3019-.0443.4545.03.1525.1041.2927.213.4027.1088.1099.2475.1848.3985.2152.151.0303.3075.0148.4497-.0448.1422-.0595.2638-.1603.3493-.2896.0855-.1294.1311-.2814.1311-.437 0-.1033-.0201-.2056-.0592-.301s-.0964-.1821-.1687-.2552c-.0723-.073-.1581-.1309-.2525-.1705-.0945-.0395-.1957-.0598-.2979-.0598z"/><path d="m10.773 8.85742h-1.34483c.00208.54501-.1227 1.08288-.36425 1.57018-.24156.4873-.59313.9104-1.02633 1.235l-.53277.4033 2.06451 2.8449h1.69737l-1.89957-2.6177c.44798-.45.80297-.9854 1.04437-1.5752.2413-.5898.3642-1.22223.3615-1.86048z"/><path d="m7.34105 8.85742h-1.34728v6.05318h1.34728z"/></g></svg>

<svg
	width="39"
	height="24"
	viewBox="0 0 39 24"
	fill="none"
	xmlns="http://www.w3.org/2000/svg"
>
	<rect
		x="0.650024"
		y="0.0078125"
		width="38"
		height="24"
		rx="2"
		fill="#FFB3C7"
	/>
	<path
		d="M29.9707 10.9918C29.6423 10.7657 29.259 10.6343 28.8622 10.6118C28.4654 10.5894 28.07 10.6767 27.7187 10.8645C27.3673 11.0522 27.0733 11.3332 26.8682 11.6772C26.6631 12.0212 26.5547 12.4152 26.5547 12.8168C26.5547 13.2184 26.6631 13.6125 26.8682 13.9565C27.0733 14.3005 27.3673 14.5815 27.7187 14.7692C28.07 14.9569 28.4654 15.0442 28.8622 15.0218C29.259 14.9994 29.6423 14.868 29.9707 14.6418V14.9093H31.2108V10.7241H29.9707V10.9918ZM28.8429 13.8936C28.6346 13.8824 28.4341 13.8098 28.2662 13.6846C28.0983 13.5595 27.9704 13.3873 27.8983 13.1895C27.8262 12.9917 27.8131 12.7768 27.8605 12.5715C27.908 12.3662 28.014 12.1795 28.1654 12.0344C28.3168 11.8893 28.5069 11.7923 28.7123 11.7553C28.9177 11.7183 29.1294 11.743 29.321 11.8262C29.5127 11.9095 29.676 12.0477 29.7908 12.2238C29.9055 12.3998 29.9667 12.6061 29.9667 12.8169C29.9587 13.1102 29.8359 13.3883 29.6253 13.5902C29.4146 13.7921 29.1332 13.9012 28.8429 13.8936Z"
		fill="black"
	/>
	<path d="M12.9657 8.8584H11.668V14.9087H12.9657V8.8584Z" fill="black" />
	<path
		d="M24.3533 10.6111C24.1095 10.5965 23.8659 10.6421 23.6434 10.7438C23.4209 10.8456 23.2262 11.0005 23.0761 11.1952V10.7239H21.8412V14.9089H23.0909V12.7095C23.0813 12.5831 23.0988 12.4562 23.1421 12.3373C23.1853 12.2183 23.2535 12.1102 23.3418 12.0203C23.4301 11.9303 23.5365 11.8606 23.6539 11.816C23.7712 11.7713 23.8967 11.7527 24.0218 11.7614C24.5668 11.7614 24.8801 12.0904 24.8801 12.7008V14.9089H26.1188V12.2474C26.1187 11.2734 25.3524 10.6111 24.3533 10.6111Z"
		fill="black"
	/>
	<path
		d="M16.8885 10.9918C16.5601 10.7657 16.1768 10.6343 15.78 10.6118C15.3832 10.5894 14.9878 10.6767 14.6365 10.8645C14.2851 11.0522 13.9911 11.3332 13.786 11.6772C13.5809 12.0212 13.4725 12.4152 13.4725 12.8168C13.4725 13.2184 13.5809 13.6125 13.786 13.9565C13.9911 14.3005 14.2851 14.5815 14.6365 14.7692C14.9878 14.9569 15.3832 15.0442 15.78 15.0218C16.1768 14.9994 16.5601 14.868 16.8885 14.6418V14.9093H18.1285V10.7241H16.8885V10.9918ZM15.7607 13.8936C15.5524 13.8825 15.3518 13.8098 15.1839 13.6847C15.016 13.5596 14.8881 13.3874 14.8159 13.1896C14.7438 12.9918 14.7307 12.7769 14.7781 12.5716C14.8256 12.3663 14.9316 12.1795 15.083 12.0345C15.2343 11.8894 15.4245 11.7923 15.6299 11.7553C15.8353 11.7183 16.0469 11.7429 16.2386 11.8262C16.4303 11.9095 16.5936 12.0477 16.7084 12.2238C16.8231 12.3998 16.8843 12.606 16.8843 12.8169C16.8764 13.1102 16.7536 13.3883 16.5429 13.5902C16.3322 13.792 16.0509 13.9012 15.7607 13.8936Z"
		fill="black"
	/>
	<path
		d="M20.0482 11.2691V10.7239H18.7786V14.9092H20.0509V12.9553C20.0509 12.296 20.7581 11.9416 21.2488 11.9416C21.2537 11.9416 21.2585 11.9421 21.2635 11.9422V10.7242C21.0336 10.718 20.8052 10.7636 20.5949 10.8579C20.3847 10.9522 20.1979 11.0926 20.0482 11.2691Z"
		fill="black"
	/>
	<path
		d="M32.5277 13.4248C32.3738 13.4248 32.2233 13.4709 32.0953 13.5574C31.9673 13.6438 31.8676 13.7666 31.8087 13.9103C31.7498 14.0541 31.7343 14.2122 31.7644 14.3648C31.7944 14.5173 31.8685 14.6575 31.9774 14.7675C32.0862 14.8774 32.2249 14.9523 32.3759 14.9827C32.5269 15.013 32.6834 14.9975 32.8256 14.9379C32.9678 14.8784 33.0894 14.7776 33.1749 14.6483C33.2604 14.5189 33.306 14.3669 33.306 14.2113C33.306 14.108 33.2859 14.0057 33.2468 13.9103C33.2077 13.8149 33.1504 13.7282 33.0781 13.6551C33.0058 13.5821 32.92 13.5242 32.8256 13.4846C32.7311 13.4451 32.6299 13.4248 32.5277 13.4248Z"
		fill="black"
	/>
	<path
		d="M10.773 8.85742H9.42817C9.43025 9.40243 9.30547 9.9403 9.06392 10.4276C8.82236 10.9149 8.47079 11.338 8.03759 11.6626L7.50482 12.0659L9.56933 14.9108H11.2667L9.36713 12.2931C9.81511 11.8431 10.1701 11.3077 10.4115 10.7179C10.6528 10.1281 10.7757 9.49567 10.773 8.85742Z"
		fill="black"
	/>
	<path
		d="M7.34105 8.85742H5.99377V14.9106H7.34105V8.85742Z"
		fill="black"
	/>
</svg>
